build/images/barcode.svg

<?xml version="1.0" encoding="utf-8"?>
<svg width="210px" height="210px" viewBox="0 0 210 210" version="1.1" xmlns:xlink="http://www.w3.org/1999/xlink" xmlns="http://www.w3.org/2000/svg">
  <defs>
    <path d="M50 200L24.999 200Q24.3853 200 23.7724 199.97Q23.1594 199.94 22.5487 199.88Q21.9379 199.819 21.3309 199.729Q20.7238 199.639 20.1219 199.52Q19.52 199.4 18.9247 199.251Q18.3294 199.102 17.7422 198.924Q17.1549 198.745 16.5771 198.539Q15.9993 198.332 15.4323 198.097Q14.8653 197.862 14.3105 197.6Q13.7558 197.337 13.2146 197.048Q12.6733 196.759 12.1469 196.443Q11.6206 196.128 11.1103 195.787Q10.6 195.446 10.1071 195.08Q9.61419 194.715 9.1398 194.325Q8.66541 193.936 8.2107 193.524Q7.75598 193.112 7.32204 192.678Q6.88809 192.244 6.47596 191.789Q6.06383 191.335 5.67451 190.86Q5.28519 190.386 4.91961 189.893Q4.55404 189.4 4.21309 188.89Q3.87214 188.379 3.55664 187.853Q3.24114 187.327 2.95185 186.785Q2.66256 186.244 2.40017 185.689Q2.13778 185.135 1.90294 184.568Q1.66809 184.001 1.46134 183.423Q1.25459 182.845 1.07645 182.258Q0.898303 181.671 0.749189 181.075Q0.600074 180.48 0.480349 179.878Q0.360624 179.276 0.270576 178.669Q0.180529 178.062 0.120377 177.451Q0.0602248 176.841 0.0301124 176.228Q0 175.615 0 175.001L0 24.999Q0 24.3853 0.0301124 23.7724Q0.0602248 23.1594 0.120377 22.5487Q0.180529 21.9379 0.270576 21.3309Q0.360624 20.7238 0.480349 20.1219Q0.600074 19.52 0.749189 18.9247Q0.898303 18.3294 1.07645 17.7422Q1.25459 17.1549 1.46134 16.5771Q1.66809 15.9993 1.90294 15.4323Q2.13778 14.8653 2.40017 14.3105Q2.66256 13.7558 2.95185 13.2146Q3.24114 12.6733 3.55664 12.1469Q3.87214 11.6206 4.21309 11.1103Q4.55404 10.6 4.91961 10.1071Q5.28519 9.61419 5.67451 9.1398Q6.06383 8.66541 6.47596 8.2107Q6.88809 7.75598 7.32204 7.32204Q7.75598 6.88809 8.2107 6.47596Q8.66541 6.06383 9.1398 5.67451Q9.61419 5.28519 10.1071 4.91961Q10.6 4.55404 11.1103 4.21309Q11.6206 3.87214 12.1469 3.55664Q12.6733 3.24114 13.2146 2.95185Q13.7558 2.66256 14.3105 2.40017Q14.8653 2.13778 15.4323 1.90294Q15.9993 1.66809 16.5771 1.46134Q17.1549 1.25459 17.7422 1.07645Q18.3294 0.898303 18.9247 0.749189Q19.52 0.600074 20.1219 0.480349Q20.7238 0.360624 21.3309 0.270576Q21.9379 0.180529 22.5487 0.120377Q23.1594 0.0602248 23.7724 0.0301124Q24.3853 0 24.999 0L50 0" id="path_1" />
    <path d="M50 200L24.999 200Q24.3853 200 23.7724 199.97Q23.1594 199.94 22.5487 199.88Q21.9379 199.819 21.3309 199.729Q20.7238 199.639 20.1219 199.52Q19.52 199.4 18.9247 199.251Q18.3294 199.102 17.7422 198.924Q17.1549 198.745 16.5771 198.539Q15.9993 198.332 15.4323 198.097Q14.8653 197.862 14.3105 197.6Q13.7558 197.337 13.2146 197.048Q12.6733 196.759 12.1469 196.443Q11.6206 196.128 11.1103 195.787Q10.6 195.446 10.1071 195.08Q9.61419 194.715 9.1398 194.325Q8.66541 193.936 8.2107 193.524Q7.75598 193.112 7.32204 192.678Q6.88809 192.244 6.47596 191.789Q6.06383 191.335 5.67451 190.86Q5.28519 190.386 4.91961 189.893Q4.55404 189.4 4.21309 188.89Q3.87214 188.379 3.55664 187.853Q3.24114 187.327 2.95185 186.785Q2.66256 186.244 2.40017 185.689Q2.13778 185.135 1.90294 184.568Q1.66809 184.001 1.46134 183.423Q1.25459 182.845 1.07645 182.258Q0.898303 181.671 0.749189 181.075Q0.600074 180.48 0.480349 179.878Q0.360624 179.276 0.270576 178.669Q0.180529 178.062 0.120377 177.451Q0.0602248 176.841 0.0301124 176.228Q0 175.615 0 175.001L0 24.999Q0 24.3853 0.0301124 23.7724Q0.0602248 23.1594 0.120377 22.5487Q0.180529 21.9379 0.270576 21.3309Q0.360624 20.7238 0.480349 20.1219Q0.600074 19.52 0.749189 18.9247Q0.898303 18.3294 1.07645 17.7422Q1.25459 17.1549 1.46134 16.5771Q1.66809 15.9993 1.90294 15.4323Q2.13778 14.8653 2.40017 14.3105Q2.66256 13.7558 2.95185 13.2146Q3.24114 12.6733 3.55664 12.1469Q3.87214 11.6206 4.21309 11.1103Q4.55404 10.6 4.91961 10.1071Q5.28519 9.61419 5.67451 9.1398Q6.06383 8.66541 6.47596 8.2107Q6.88809 7.75598 7.32204 7.32204Q7.75598 6.88809 8.2107 6.47596Q8.66541 6.06383 9.1398 5.67451Q9.61419 5.28519 10.1071 4.91961Q10.6 4.55404 11.1103 4.21309Q11.6206 3.87214 12.1469 3.55664Q12.6733 3.24114 13.2146 2.95185Q13.7558 2.66256 14.3105 2.40017Q14.8653 2.13778 15.4323 1.90294Q15.9993 1.66809 16.5771 1.46134Q17.1549 1.25459 17.7422 1.07645Q18.3294 0.898303 18.9247 0.749189Q19.52 0.600074 20.1219 0.480349Q20.7238 0.360624 21.3309 0.270576Q21.9379 0.180529 22.5487 0.120377Q23.1594 0.0602248 23.7724 0.0301124Q24.3853 0 24.999 0L50 0" transform="matrix(-1 0 0 1 200 0)" id="path_2" />
    <clipPath id="clip_1">
      <use xlink:href="#path_1" />
    </clipPath>
    <clipPath id="clip_2">
      <use xlink:href="#path_2" />
    </clipPath>
  </defs>
  <g id="Barcode" transform="translate(5 5)">
    <g id="Left-Bracket">
      <g clip-path="url(#clip_1)">
        <use xlink:href="#path_1" fill="none" stroke="#323232" stroke-width="20" stroke-linecap="round" stroke-linejoin="round" />
      </g>
    </g>
    <g id="Right-Bracket">
      <g clip-path="url(#clip_2)">
        <use xlink:href="#path_2" fill="none" stroke="#323232" stroke-width="20" stroke-linecap="round" stroke-linejoin="round" />
      </g>
    </g>
    <g id="Lines" transform="translate(27 25)">
      <path d="M1 150L1 0" id="Line-1" fill="none" fill-rule="evenodd" stroke="#323232" stroke-width="10" />
      <path d="M1 150L1 0" transform="translate(36 0)" id="Line-2" fill="none" fill-rule="evenodd" stroke="#323232" stroke-width="10" />
      <path d="M1 150L1 0" transform="translate(72 0)" id="Line-3" fill="none" fill-rule="evenodd" stroke="#323232" stroke-width="10" />
      <path d="M1 150L1 0" transform="translate(108 0)" id="Line-4" fill="none" fill-rule="evenodd" stroke="#323232" stroke-width="10" />
      <path d="M1 150L1 0" transform="translate(144 0)" id="Line-5" fill="none" fill-rule="evenodd" stroke="#323232" stroke-width="10" />
    </g>
  </g>
</svg>

<svg width="210" height="210" xmlns:xlink="http://www.w3.org/1999/xlink" xmlns="http://www.w3.org/2000/svg"><defs><clipPath id="c"><use xlink:href="#a"/></clipPath><clipPath id="d"><use xlink:href="#b"/></clipPath><path d="M50 200H23.8l-1.3-.1-1.2-.2-1.2-.2-1.2-.2-1.2-.4-1.1-.4-1.2-.4-1-.5-1.2-.6-1-.6-1-.6-1-.7-1-.8-1-.8-.9-.8-.8-1-.8-.8-.8-1-.7-1-.6-1-.6-1.1-.6-1.1-.5-1.1-.4-1.2-.4-1.1-.4-1.2-.2-1.2-.2-1.2-.2-1.2v-1.3L0 175V23.8l.1-1.3.2-1.2.2-1.2.2-1.2.4-1.2.4-1.1.4-1.2.5-1 .6-1.2.6-1 .6-1 .7-1 .8-1 .8-1 .8-.9 1-.8.8-.8 1-.8 1-.7 1-.6 1.1-.6 1.1-.6 1.1-.5 1.2-.4 1.1-.4L19 .7l1.2-.2 1.2-.2 1.2-.2h1.3L25 0h25" id="a"/><path d="M50 200H23.8l-1.3-.1-1.2-.2-1.2-.2-1.2-.2-1.2-.4-1.1-.4-1.2-.4-1-.5-1.2-.6-1-.6-1-.6-1-.7-1-.8-1-.8-.9-.8-.8-1-.8-.8-.8-1-.7-1-.6-1-.6-1.1-.6-1.1-.5-1.1-.4-1.2-.4-1.1-.4-1.2-.2-1.2-.2-1.2-.2-1.2v-1.3L0 175V23.8l.1-1.3.2-1.2.2-1.2.2-1.2.4-1.2.4-1.1.4-1.2.5-1 .6-1.2.6-1 .6-1 .7-1 .8-1 .8-1 .8-.9 1-.8.8-.8 1-.8 1-.7 1-.6 1.1-.6 1.1-.6 1.1-.5 1.2-.4 1.1-.4L19 .7l1.2-.2 1.2-.2 1.2-.2h1.3L25 0h25" transform="matrix(-1 0 0 1 200 0)" id="b"/></defs><g clip-path="url(#c)" transform="translate(5 5)"><use xlink:href="#a" fill="none" stroke="#323232" stroke-width="20" stroke-linecap="round" stroke-linejoin="round"/></g><g clip-path="url(#d)" transform="translate(5 5)"><use xlink:href="#b" fill="none" stroke="#323232" stroke-width="20" stroke-linecap="round" stroke-linejoin="round"/></g><g fill="none" stroke="#323232" stroke-width="10"><path d="M33 180V30M69 180V30M105 180V30M141 180V30M177 180V30"/></g></svg>
